!!!!SEGMENT: pl-kk--kk-i-386--001-009_anonim--missa-prima-dona.krn
!!!cenid: 18xx:4507
!!!COM: Anonim
!!!COM-rismID: pe30004985
!!!CDT:
!!!CNT:
!!!OPR: [Missa prima]
!!!OTL: Dona
!!!OMV: 009
!!!PDT:
!!!AGN: Sacred
!!!YEC: Copyright 2022 Narodowy Instytut Fryderyka Chopina (https://polishscores.org)
!!!YEM: License CC-BY-4.0 (https://creativecommons.org/licenses/by/4.0)
!!!SMS-siglum: PL-Kk
!!!SMS-shelfmark: Kk.I.386
!!!SMS-variant:
!!!SMS-altvar:
!!!SMS-shelfwork: 001-009 M
!!!NIFC-rismSourceID: 1001218240
!!!NIFC-rismChildID: 1001218242
!!!NIFC-islandoraID: pl-kk:16060
!!!URL-pdf-islandora: https://repozytorium.nifc.pl/islandora/object/pl-kk%3A16060/datastream/PDF/view
!!!URL-scan: https://polish.musicsources.pl/pl/lokalizacje/galeria/rekopisy/7134/3 @EN{Scan on Polish Music Sources Website} @PL{Skany w portalu Dziedzictwo Muzyki Polskiej w otwartym dostępie}
!!!IIIF:
!!!ONB-nifc: UWAGA: Części Missy Prima: Rorate, Kyrie, Gloria, Graduale, Offertorium, Sanctus, Benedicuts, Agnus, Dona. Zakres skanów: S – 3-6, A – 12-15, T – 22-25, B – 32-25
!!!AIN: 1 alto 1 bass 1 soprn 1 tenor
!!!key:
**kern	**text	**kern	**text	**kern	**text	**kern	**text
*part4	*part4	*part3	*part3	*part2	*part2	*part1	*part1
*staff4	*staff4	*staff3	*staff3	*staff2	*staff2	*staff1	*staff1
*I"Basso.	*	*I"Tenore.	*	*I"Alto.	*	*I"Soprano.	*
*I'B	*	*I'T	*	*I'A	*	*I'S	*
*Ibass	*	*Itenor	*	*Ialto	*	*Isoprn	*
*ICvox	*	*ICvox	*	*ICvox	*	*ICvox	*
*clefF4	*	*clefC4	*	*clefC3	*	*clefC1	*
*k[]	*	*k[]	*	*k[]	*	*k[]	*
*C:	*	*C:	*	*C:	*	*C:	*
*M4/4	*	*M4/4	*	*M4/4	*	*M4/4	*
*met(c)	*	*met(c)	*	*met(c)	*	*met(c)	*
!	!	!	!	!LO:TX:a:t=in C.	!	!LO:TX:a:t=in C.	!
8G\	Do-	8G/	Do-	8g\	Do-	8g\	Do-
8G\	-na	8G/	-na	8g\	-na	8g\	-na
=1	=1	=1	=1	=1	=1	=1	=1
*2\right	*	*2\right	*	*2\right	*	*2\right	*
2c\	do-	2c\	do-	2g\	do-	2ee\	Do-
2G\	-na	2d\	-na	2b\	-na	2gg\	-na
=2	=2	=2	=2	=2	=2	=2	=2
2A\	no-	2e\	no-	2a\	no-	2cc\	no-
2E\	-bis	2c\	-bis	2g\	-bis	2ee\	-bis
=3	=3	=3	=3	=3	=3	=3	=3
2F\	pa-	2c\	pa-	2a\	pa-	2dd\	pa-
2G\	.	2d\	.	2b\	.	2gg\	.
=4	=4	=4	=4	=4	=4	=4	=4
2C/	-cem	2c\	-cem	2g\	-cem	2ee\	-cem
!LO:LB:g=original	!	!	!	!	!	!	!
4r	.	4r	.	4r	.	4r	.
8C/	do-	8c\	do-	8c\	do-	8cc\	do-
8C/	-na	8c\	-na	8c\	-na	8cc\	-na
=5	=5	=5	=5	=5	=5	=5	=5
4.A\	do-	4.c\	do-	4.f\	do-	4.ff\	do-
8A\	-na	8c\	-na	8f\	-na	8ff\	-na
!	!	!	!	!LO:LB:g=original	!	!	!
4.G\	no-	4.c\	no-	4.g\	no-	4.ee\	no-
8G\	-bis	8c\	-bis	8g\	-bis	8ee\	-bis
!	!	!LO:LB:g=original	!	!	!	!LO:LB:g=original	!
=6	=6	=6	=6	=6	=6	=6	=6
.	.	.	.	.	.	8qee/	.
4F\	pa-	4B\	pa-	4g\	pa-	4dd\	pa-
4E\	-cem	4c\	-cem	4g\	-cem	4cc\	-cem
4r	.	4r	.	4r	.	4r	.
8C/	do-	8c\	do-	8g\	do-	8ee\	do-
8C/	-na	8c\	-na	8g\	-na	8ee\	-na
=7	=7	=7	=7	=7	=7	=7	=7
2C/	no-	2c\	no-	2g\	do-	2ee\	do-
2C/	-bis	2A\	-bis	2f#X\	-na	2ee\	-na
!LO:TX:a:t=Volti Subitto	!	!	!	!	!	!	!
!LO:PB:g=original	!	!	!	!	!	!	!
=8	=8	=8	=8	=8	=8	=8	=8
2BB/	no-	4B\	pa-	2g\	no-	2dd\	no-
.	.	4d\	-cem	.	.	.	.
4AA/	.	4d\	pa-	4f#X\	.	4cc\	.
4GG/	-bis	4d\	-cem	4g\	-bis	4b\	-bis
!!linebreak:original
=9	=9	=9	=9	=9	=9	=9	=9
4.C/	do-	4.G/	do-	4.e\	do-	4.a\	do-
8C/	-na	8G/	-na	8e\	-na	8a\	-na
4.C#X/	no-	4.G/	no-	4e\	no-	4.b-X\	no-
.	.	.	.	4e\	-bis	.	.
8C#/	-bis	8G/	-bis	.	.	8b-\	-bis
=10	=10	=10	=10	=10	=10	=10	=10
2.D\	pa-	2G/	pa-	2.d\	pa-	2bn\	pa-
.	.	4A\	.	.	.	4cc\	.
4D\	-cem	4c\	-cem	4d\	-cem	4f#X/	-cem
!	!	!	!	!LO:LB:g=original	!	!	!
=11	=11	=11	=11	=11	=11	=11	=11
4G\	pa-	4c\	pa-	4d\	pa-	4a\	pa-
4GG/	-cem	4B\	-cem	4d\	-cem	4g\	-cem
!	!	!LO:PB:g=original	!	!	!	!	!
4r	.	4r	.	4r	.	4r	.
8G\	do-	8G/	do-	8g\	do-	8g\	do-
8G\	-na	8G/	-na	8g\	-na	8g\	-na
!	!	!	!	!	!	!LO:LB:g=original	!
=12	=12	=12	=12	=12	=12	=12	=12
2c\	do-	2c\	do-	2g\	do-	2ee\	do-
2G\	-na	2d\	-na	2b\	-na	2gg\	-na
=13	=13	=13	=13	=13	=13	=13	=13
2A\	no-	2e\	no-	2a\	no-	2cc\	no-
2E\	-bis	2c\	-bis	2g\	-bis	2ee\	-bis
!LO:LB:g=original	!	!	!	!	!	!	!
=14	=14	=14	=14	=14	=14	=14	=14
2F\	pa-	2c\	pa-	2a\	pa-	2dd\	pa-
2G\	.	2d\	.	2b\	.	2gg\	.
=15	=15	=15	=15	=15	=15	=15	=15
2C/	-cem	2c\	-cem,	2g\	-cem	2ee\	-cem
2r	.	2r	.	4r	.	4r	.
.	.	.	.	4e\	do-	8g\	do-
.	.	.	.	.	.	8g\	-na
=16	=16	=16	=16	=16	=16	=16	=16
2r	.	2r	.	4c\	.	4e/	no-
.	.	.	.	4e\	.	4g/	.
4r	.	4r	.	4g\	.	4cc\	.
4E\	da	4G/	do-	4cc\	-na	4ee\	-bis
=17	=17	=17	=17	=17	=17	=17	=17
4C/	pa-	4E/	.	1cc	pa-	2ee\	do-
4E\	.	4G/	-na	.	.	.	.
4G\	-cem	4c\	no-	.	.	2ee\	-na
4c\	da	4e\	-bis	.	.	.	.
!	!	!LO:LB:g=original	!	!LO:LB:g=original	!	!	!
=18	=18	=18	=18	=18	=18	=18	=18
2F\	pa-	2c\	pa-	2a\	.	2dd\	pa-
2G\	.	2d\	.	2b\	.	2gg\	.
=19	=19	=19	=19	=19	=19	=19	=19
2C/	-cem	2c\	-cem	2g\	-cem	2ee\	-cem
!	!	!	!	!	!	!LO:LB:g=original	!
2r	.	2r	.	4r	.	4r	.
.	.	.	.	4e\	do-	8g\	do-
.	.	.	.	.	.	8g\	-na
=20	=20	=20	=20	=20	=20	=20	=20
2r	.	2r	.	4c\	.	4e/	no-
.	.	.	.	4e\	.	4g\	.
4r	.	4r	.	4g\	.	4cc\	.
4E\	da	4G/	do-	4cc\	-na	4ee\	-bis
=21	=21	=21	=21	=21	=21	=21	=21
4C\	pa-	4E/	.	1cc	pa-	2gg\	pa-
4E\	.	4G/	-na	.	.	.	.
!LO:LB:g=original	!	!	!	!	!	!	!
4G\	-cem	4c\	no-	.	.	2ee\	-cem
4c\	da	4e\	-bis	.	.	.	.
=22	=22	=22	=22	=22	=22	=22	=22
2F\	pa-	2d\	pa-	2cc\	.	2aa\	pa-
2G\	.	2f\	.	2g\	.	2b\	.
=23	=23	=23	=23	=23	=23	=23	=23
2C/	-cem	2e\	-cem,	2g\	-cem	2cc\	-cem
4r	.	4r	.	4r	.	4r	.
4C/	do-	8c\	do-	4e\	do-	4g\	da
.	.	8c\	-na	.	.	.	.
=24	=24	=24	=24	=24	=24	=24	=24
2F\	.	2c\	no-	2f\	.	2a\	no-
2F\	-na	2c\	-bis	2f\	-na	2a\	-bis
!	!	!LO:LB:g=original	!	!LO:LB:g=original	!	!	!
=25	=25	=25	=25	=25	=25	=25	=25
2F\	no-	2d\	pa-	2a\	no-	2ff\	pa-
2F\	-bis	2f\	-cem	2g\	-bis	2b\	-cem
=26	=26	=26	=26	=26	=26	=26	=26
2G\	pa-	1B	pa-	1f	pa-	1dd	pa-
2GG/	.	.	.	.	.	.	.
=27	=27	=27	=27	=27	=27	=27	=27
2C/	-cem.	2G/	-cem.	2e\	-cem.	2cc\	-cem.
2r	.	2r	.	2r	.	2r	.
==	==	==	==	==	==	==	==
*-	*-	*-	*-	*-	*-	*-	*-
!!!system-decoration: [(s1,s2,s3,s4)]
!!!ENC: Anastazja Marusiak
!!!END: 2023-11-01
!!!ENC: Leszek Kubiak
!!!END: 2-24-06-24
